src/assets/icons/app-transactions.svg

<svg width="16" height="16" viewBox="0 0 16 16" fill="none" xmlns="http://www.w3.org/2000/svg">
<g clip-path="url(#clip0_13264_39662)">
<path fill-rule="evenodd" clip-rule="evenodd" d="M11.1113 1.15914C10.9801 1.20805 10.9007 1.25785 10.8155 1.34481C10.6633 1.49993 10.5984 1.65748 10.5984 1.87145C10.5984 2.1284 10.6621 2.2485 10.9622 2.5576L11.1832 2.78527L6.4077 2.79057C1.87555 2.7956 1.62564 2.79744 1.50396 2.82668C0.911678 2.96906 0.461725 3.31509 0.206533 3.82449C0.0920493 4.05301 0.0417905 4.23594 0.0172081 4.51372C-0.00571606 4.77284 -0.00575029 11.2584 0.017191 11.4351C0.0551415 11.7275 0.262775 11.9758 0.539541 12.0598C0.646007 12.092 0.872787 12.0926 0.977442 12.0609C1.1646 12.0041 1.34953 11.838 1.44131 11.6442L1.49542 11.53L1.50396 8.05124C1.51171 4.901 1.51511 4.56678 1.54003 4.5126C1.57219 4.44269 1.64429 4.3673 1.71729 4.32724C1.76497 4.30109 2.13145 4.29858 6.48557 4.29453L11.2022 4.29013L10.9592 4.53818C10.64 4.86401 10.607 4.92744 10.607 5.21349C10.607 5.39974 10.6099 5.41624 10.6624 5.52713C10.7293 5.66839 10.8731 5.81597 11.0118 5.88559C11.1399 5.94992 11.3189 5.97597 11.4656 5.95165C11.6998 5.91286 11.6863 5.92412 12.6977 4.91628C13.5694 4.04759 13.6297 3.98354 13.6885 3.86531C13.744 3.75358 13.7518 3.72156 13.758 3.58075C13.7655 3.40746 13.7421 3.30545 13.662 3.16211C13.6026 3.05597 11.8311 1.28582 11.7221 1.22371C11.6772 1.19817 11.6041 1.16622 11.5597 1.15273C11.4496 1.11935 11.2088 1.12278 11.1113 1.15914ZM15.0174 3.93981C14.828 4.00114 14.6505 4.16175 14.5593 4.35432L14.5046 4.46987L14.496 7.94867C14.4883 11.0989 14.4849 11.4331 14.46 11.4873C14.4278 11.5572 14.3557 11.6326 14.2827 11.6727C14.235 11.6988 13.8686 11.7013 9.51443 11.7054L4.7978 11.7098L5.04078 11.4617C5.35996 11.1359 5.39304 11.0725 5.39304 10.7864C5.39304 10.6002 5.39011 10.5837 5.3376 10.4728C5.19433 10.1702 4.86233 9.99391 4.53742 10.0477C4.29981 10.0871 4.31536 10.0741 3.30232 11.0836C2.43064 11.9523 2.37026 12.0164 2.31154 12.1346C2.25603 12.2463 2.24822 12.2783 2.24205 12.4192C2.23448 12.5924 2.25786 12.6944 2.33802 12.8378C2.39736 12.9439 4.16891 14.7141 4.27794 14.7762C4.3988 14.845 4.50499 14.8717 4.65919 14.8719C4.87243 14.8722 5.03917 14.803 5.18612 14.6534C5.33654 14.5002 5.40159 14.3417 5.40159 14.1284C5.40159 13.8714 5.33794 13.7514 5.03743 13.4419L4.81604 13.2139L9.45518 13.2139C12.5346 13.2139 14.1575 13.2079 14.2824 13.1961C14.7474 13.1521 15.1242 12.9777 15.4423 12.6591C15.7674 12.3335 15.9412 11.9564 15.9828 11.4862C16.0057 11.2271 16.0058 4.74154 15.9828 4.56483C15.9449 4.27242 15.7372 4.0241 15.4605 3.94015C15.3583 3.90916 15.1126 3.90897 15.0174 3.93981ZM7.71794 5.31714C6.68512 5.41916 5.78186 6.13959 5.44737 7.12811C5.32662 7.48495 5.28131 7.85475 5.3138 8.21791C5.33794 8.48763 5.36926 8.64096 5.44737 8.87179C5.84137 10.0361 7.00035 10.7951 8.21796 10.6861C8.48768 10.662 8.64101 10.6307 8.87184 10.5526C10.0362 10.1586 10.7952 8.99961 10.6862 7.78199C10.6621 7.51227 10.6307 7.35895 10.5526 7.12811C10.4205 6.73777 10.2042 6.39157 9.90631 6.09364C9.32663 5.51395 8.54242 5.23568 7.71794 5.31714ZM7.73503 6.83138C7.58294 6.8635 7.36886 6.96711 7.24783 7.06719C6.56831 7.62901 6.69069 8.69479 7.47861 9.07675C8.26921 9.46002 9.19664 8.87874 9.19664 7.99995C9.19664 7.23533 8.49153 6.67158 7.73503 6.83138ZM3.03643 7.00134C2.77324 7.06505 2.491 7.29346 2.37283 7.53839C2.29376 7.70223 2.26916 7.81175 2.26916 7.99995C2.26916 8.29665 2.35768 8.5128 2.56336 8.71828C2.77406 8.92878 3.00236 9.02513 3.29037 9.02513C3.58205 9.02513 3.7998 8.93475 4.00959 8.7266C4.27269 8.46558 4.37304 8.13939 4.2989 7.78627C4.25703 7.58687 4.16867 7.42994 4.01012 7.27342C3.85782 7.12305 3.71973 7.04375 3.53389 6.99994C3.4012 6.96865 3.16876 6.9693 3.03643 7.00134ZM12.4549 7.00151C12.2771 7.04455 12.1405 7.12437 11.9899 7.27323C11.8852 7.37667 11.836 7.44155 11.7888 7.53839C11.6412 7.84085 11.6412 8.15905 11.7888 8.46151C11.8361 8.55849 11.8851 8.62304 11.9899 8.72648C12.201 8.93487 12.4185 9.02513 12.7096 9.02513C12.9976 9.02513 13.2259 8.92878 13.4366 8.71828C13.6423 8.5128 13.7308 8.29665 13.7308 7.99995C13.7308 7.91685 13.7214 7.80784 13.7099 7.75772C13.6294 7.40654 13.3077 7.0835 12.9557 7.00054C12.8205 6.96865 12.5889 6.9691 12.4549 7.00151Z" fill="currentColor"/>
</g>
<defs>
<clipPath id="clip0_13264_39662">
<rect width="16" height="16" fill="white"/>
</clipPath>
</defs>
</svg>

<svg xmlns="http://www.w3.org/2000/svg" width="16" height="16" fill="none">
  <g clip-path="url(#a)">
    <path fill="currentColor" fill-rule="evenodd" d="M11.111 1.16a.727.727 0 0 0-.296.185.694.694 0 0 0-.217.526c0 .257.064.377.364.687l.221.227-4.775.006c-4.532.005-4.782.006-4.904.036-.592.142-1.042.488-1.297.997a1.725 1.725 0 0 0-.19.69c-.023.259-.023 6.744 0 6.921a.76.76 0 0 0 .523.625.992.992 0 0 0 .437 0 .813.813 0 0 0 .464-.416l.054-.114.009-3.479c.008-3.15.011-3.484.036-3.538a.446.446 0 0 1 .177-.186c.048-.026.414-.028 4.769-.032l4.716-.005-.243.248c-.319.326-.352.39-.352.675 0 .187.003.203.055.314a.848.848 0 0 0 .35.359c.128.064.307.09.454.066.234-.04.22-.028 1.232-1.036.871-.868.932-.932.99-1.05a.531.531 0 0 0 .07-.285.685.685 0 0 0-.096-.419c-.06-.106-1.83-1.876-1.94-1.938a.967.967 0 0 0-.162-.071.972.972 0 0 0-.449.006Zm3.906 2.78a.81.81 0 0 0-.458.414l-.054.116-.009 3.479c-.008 3.15-.011 3.484-.036 3.538a.447.447 0 0 1-.177.186c-.048.026-.414.028-4.769.032l-4.716.005.243-.248c.319-.326.352-.39.352-.676 0-.186-.003-.202-.055-.313a.76.76 0 0 0-.8-.425c-.238.04-.223.026-1.236 1.036-.871.868-.932.932-.99 1.05a.53.53 0 0 0-.07.285.684.684 0 0 0 .096.419c.06.106 1.83 1.876 1.94 1.938.12.069.227.096.381.096.213 0 .38-.069.527-.219a.693.693 0 0 0 .216-.525c0-.257-.064-.377-.365-.686l-.221-.228h4.64c3.079 0 4.702-.006 4.826-.018a1.81 1.81 0 0 0 1.16-.537 1.8 1.8 0 0 0 .54-1.173c.024-.259.024-6.744 0-6.921a.757.757 0 0 0-.521-.625 1.07 1.07 0 0 0-.444 0Zm-7.3 1.377a2.703 2.703 0 0 0-2.27 1.811c-.12.357-.166.727-.133 1.09.024.27.055.423.133.654a2.695 2.695 0 0 0 2.771 1.814c.27-.024.423-.055.654-.133a2.695 2.695 0 0 0 1.814-2.771 2.652 2.652 0 0 0-.78-1.688 2.682 2.682 0 0 0-2.188-.777Zm.018 1.514a1.321 1.321 0 0 0-.487.236 1.2 1.2 0 0 0 .23 2.01A1.2 1.2 0 0 0 9.198 8c0-.765-.705-1.328-1.462-1.169Zm-4.699.17a1.09 1.09 0 0 0-.663.537.92.92 0 0 0-.104.462c0 .297.089.513.294.718.211.21.44.307.727.307.292 0 .51-.09.72-.298a.989.989 0 0 0 .289-.94.963.963 0 0 0-.289-.514A.94.94 0 0 0 3.534 7a1.314 1.314 0 0 0-.498 0Zm9.419 0a.938.938 0 0 0-.465.272.883.883 0 0 0-.201.265 1.017 1.017 0 0 0 0 .924.881.881 0 0 0 .2.264.949.949 0 0 0 .72.3.969.969 0 0 0 .728-.308A.935.935 0 0 0 13.73 8c0-.083-.01-.192-.021-.242A1.07 1.07 0 0 0 12.956 7a1.312 1.312 0 0 0-.501 0Z" clip-rule="evenodd"/>
  </g>
  <defs>
    <clipPath id="a">
      <path fill="#fff" d="M0 0h16v16H0z"/>
    </clipPath>
  </defs>
</svg>
